X:2078
T:Branles de villages 3
S:AH; UGB record
R:Branle
O:France
M:2/4
L:1/8
K:Gm
Gc GA|BA G>A|BB AG|cB AG::\
G/A/B AG|FE D>F|
ED ED/E/|C/D/E/F/ G2|\
G/A/B AG|FE D>E|F/G/_A/F/ GF/E/|F/E/D C2||


